src/pos-icons/weather-snowy.svg

<svg height="24" viewBox="0 0 24 24" width="24" xmlns="http://www.w3.org/2000/svg"><path d="m6 14a1 1 0 0 1 1 1 1 1 0 0 1 -1 1 5 5 0 0 1 -5-5 5 5 0 0 1 5-5c1-2.35 3.3-4 6-4 3.43 0 6.24 2.66 6.5 6.03l.5-.03a4 4 0 0 1 4 4 4 4 0 0 1 -4 4h-1a1 1 0 0 1 -1-1 1 1 0 0 1 1-1h1a2 2 0 0 0 2-2 2 2 0 0 0 -2-2h-2v-1a5 5 0 0 0 -5-5c-2.5 0-4.55 1.82-4.94 4.19-.33-.12-.69-.19-1.06-.19a3 3 0 0 0 -3 3 3 3 0 0 0 3 3m1.88 4.07 2.19-.57-1.61-1.62c-.39-.38-.39-1.02 0-1.42.39-.39 1.04-.39 1.42 0l1.62 1.61.57-2.19c.14-.54.69-.85 1.22-.71.54.14.85.69.71 1.23l-.59 2.19 2.19-.59c.54-.14 1.09.17 1.23.71.14.53-.17 1.08-.71 1.22l-2.19.57 1.61 1.62c.39.38.39 1.03 0 1.42s-1.04.39-1.42 0l-1.62-1.61-.57 2.19c-.14.54-.69.85-1.22.71-.54-.14-.85-.69-.71-1.23l.59-2.19-2.19.59c-.54.14-1.09-.17-1.23-.71-.14-.53.17-1.08.71-1.22z"/></svg>

<?xml version="1.0" encoding="UTF-8"?><!DOCTYPE svg PUBLIC "-//W3C//DTD SVG 1.1//EN" "http://www.w3.org/Graphics/SVG/1.1/DTD/svg11.dtd"><svg xmlns="http://www.w3.org/2000/svg" xmlns:xlink="http://www.w3.org/1999/xlink" version="1.1" id="mdi-weather-snowy" width="24" height="24" viewBox="0 0 24 24"><path d="M6,14A1,1 0 0,1 7,15A1,1 0 0,1 6,16A5,5 0 0,1 1,11A5,5 0 0,1 6,6C7,3.65 9.3,2 12,2C15.43,2 18.24,4.66 18.5,8.03L19,8A4,4 0 0,1 23,12A4,4 0 0,1 19,16H18A1,1 0 0,1 17,15A1,1 0 0,1 18,14H19A2,2 0 0,0 21,12A2,2 0 0,0 19,10H17V9A5,5 0 0,0 12,4C9.5,4 7.45,5.82 7.06,8.19C6.73,8.07 6.37,8 6,8A3,3 0 0,0 3,11A3,3 0 0,0 6,14M7.88,18.07L10.07,17.5L8.46,15.88C8.07,15.5 8.07,14.86 8.46,14.46C8.85,14.07 9.5,14.07 9.88,14.46L11.5,16.07L12.07,13.88C12.21,13.34 12.76,13.03 13.29,13.17C13.83,13.31 14.14,13.86 14,14.4L13.41,16.59L15.6,16C16.14,15.86 16.69,16.17 16.83,16.71C16.97,17.24 16.66,17.79 16.12,17.93L13.93,18.5L15.54,20.12C15.93,20.5 15.93,21.15 15.54,21.54C15.15,21.93 14.5,21.93 14.12,21.54L12.5,19.93L11.93,22.12C11.79,22.66 11.24,22.97 10.71,22.83C10.17,22.69 9.86,22.14 10,21.6L10.59,19.41L8.4,20C7.86,20.14 7.31,19.83 7.17,19.29C7.03,18.76 7.34,18.21 7.88,18.07Z" /></svg>
